svgs/sharp-light/toothbrush.svg

<svg xmlns="http://www.w3.org/2000/svg" viewBox="0 0 576 512"><!--! Font Awesome Pro 6.6.0 by @fontawesome - https://fontawesome.com License - https://fontawesome.com/license (Commercial License) Copyright 2024 Fonticons, Inc. --><path d="M32 160c0-17.7 14.3-32 32-32l224 0c14.2 0 27.8-3.2 39.6-10.9c11.8-7.7 19.3-18.3 23.9-28.8c2.9-6.7 4.8-13.8 6.1-20.8c12.6 3 24.2 8 33.6 14.6C406.8 93 416 107.8 416 128c0 35.3-28.7 64-64 64L64 192l-32 0 0-32zM360 35.3c-10.6-2.2-21.4-3.3-32-3.3c0 30.8-2.3 64-40 64L64 96C28.7 96 0 124.7 0 160l0 32 0 32 32 0 32 0 288 0c53 0 96-43 96-96c0-52.5-41.6-83.2-88-92.7zM64 272l0-16-32 0 0 16 0 176-16 0L0 448l0 32 16 0 32 0 64 0 64 0 64 0 64 0 64 0 192 0 16 0 0-32-16 0-176 0 0-176 0-16-32 0 0 16 0 176-32 0 0-176 0-16-32 0 0 16 0 176-32 0 0-176 0-16-32 0 0 16 0 176-32 0 0-176 0-16-32 0 0 16 0 176-32 0 0-176 0-16-32 0 0 16 0 176-32 0 0-176z"/></svg>

<svg xmlns="http://www.w3.org/2000/svg" viewBox="0 0 576 512"><!--! Font Awesome Pro 6.4.0 by @fontawesome - https://fontawesome.com License - https://fontawesome.com/license (Commercial License) Copyright 2023 Fonticons, Inc. --><path d="M32 160c0-17.7 14.3-32 32-32H288c14.2 0 27.8-3.2 39.6-10.9c11.8-7.7 19.3-18.3 23.9-28.8c2.9-6.7 4.8-13.8 6.1-20.8c12.6 3 24.2 8 33.6 14.6C406.8 93 416 107.8 416 128c0 35.3-28.7 64-64 64H64 32V160zM360 35.3c-10.6-2.2-21.4-3.3-32-3.3c0 30.8-2.3 64-40 64H64C28.7 96 0 124.7 0 160v32 32H32 64 352c53 0 96-43 96-96c0-52.5-41.6-83.2-88-92.7zM64 272V256H32v16V448H16 0v32H16 48h64 64 64 64 64H560h16V448H560 384V272 256H352v16V448H320V272 256H288v16V448H256V272 256H224v16V448H192V272 256H160v16V448H128V272 256H96v16V448H64V272z"/></svg>
